img/svg/about/gear.svg

<svg width="24" height="24" viewBox="0 0 24 24" fill="none" xmlns="http://www.w3.org/2000/svg">
<g clip-path="url(#clip0_9224_32380)">
<mask id="path-1-inside-1_9224_32380" fill="white">
<path d="M12.0002 7.13025C11.3608 7.13025 10.7277 7.25619 10.1369 7.50088C9.54621 7.74557 9.00945 8.10422 8.55732 8.55635C8.1052 9.00848 7.74655 9.54523 7.50186 10.136C7.25717 10.7267 7.13123 11.3598 7.13123 11.9993C7.13123 12.6387 7.25717 13.2718 7.50186 13.8625C7.74655 14.4533 8.1052 14.99 8.55732 15.4422C9.00945 15.8943 9.54621 16.2529 10.1369 16.4976C10.7277 16.7423 11.3608 16.8683 12.0002 16.8683C13.2916 16.8683 14.53 16.3553 15.4431 15.4422C16.3562 14.529 16.8692 13.2906 16.8692 11.9993C16.8692 10.7079 16.3562 9.46946 15.4431 8.55635C14.53 7.64323 13.2916 7.13025 12.0002 7.13025ZM8.63123 11.9993C8.63123 11.1057 8.98617 10.2488 9.61798 9.61701C10.2498 8.9852 11.1067 8.63025 12.0002 8.63025C12.8937 8.63025 13.7507 8.9852 14.3825 9.61701C15.0143 10.2488 15.3692 11.1057 15.3692 11.9993C15.3692 12.8928 15.0143 13.7497 14.3825 14.3815C13.7507 15.0133 12.8937 15.3683 12.0002 15.3683C11.1067 15.3683 10.2498 15.0133 9.61798 14.3815C8.98617 13.7497 8.63123 12.8928 8.63123 11.9993Z"/>
<path d="M14.6942 2.01375C13.9037 -0.67125 10.0967 -0.67125 9.30623 2.01375L9.16523 2.49225C9.11002 2.67968 9.01357 2.85238 8.88295 2.99769C8.75233 3.143 8.59085 3.25724 8.41034 3.33203C8.22983 3.40682 8.03487 3.44027 7.83976 3.42993C7.64464 3.41958 7.45432 3.36571 7.28273 3.27225L6.84473 3.03225C4.38473 1.69425 1.69523 4.38525 3.03473 6.84375L3.27323 7.28175C3.36668 7.45334 3.42056 7.64367 3.4309 7.83878C3.44125 8.0339 3.4078 8.22886 3.333 8.40936C3.25821 8.58987 3.14397 8.75135 2.99866 8.88198C2.85335 9.0126 2.68065 9.10905 2.49323 9.16425L2.01473 9.30525C-0.670273 10.0958 -0.670273 13.9028 2.01473 14.6933L2.49323 14.8343C2.68065 14.8895 2.85335 14.9859 2.99866 15.1165C3.14397 15.2471 3.25821 15.4086 3.333 15.5891C3.4078 15.7696 3.44125 15.9646 3.4309 16.1597C3.42056 16.3548 3.36668 16.5452 3.27323 16.7168L3.03323 17.1548C1.69523 19.6148 4.38473 22.3058 6.84473 20.9648L7.28273 20.7263C7.45432 20.6328 7.64464 20.5789 7.83976 20.5686C8.03487 20.5582 8.22983 20.5917 8.41034 20.6665C8.59085 20.7413 8.75233 20.8555 8.88295 21.0008C9.01357 21.1461 9.11002 21.3188 9.16523 21.5063L9.30623 21.9848C10.0967 24.6698 13.9037 24.6698 14.6942 21.9848L14.8352 21.5063C14.8904 21.3188 14.9869 21.1461 15.1175 21.0008C15.2481 20.8555 15.4096 20.7413 15.5901 20.6665C15.7706 20.5917 15.9656 20.5582 16.1607 20.5686C16.3558 20.5789 16.5461 20.6328 16.7177 20.7263L17.1557 20.9663C19.6157 22.3058 22.3067 19.6133 20.9657 17.1548L20.7272 16.7168C20.6338 16.5452 20.5799 16.3548 20.5696 16.1597C20.5592 15.9646 20.5927 15.7696 20.6674 15.5891C20.7422 15.4086 20.8565 15.2471 21.0018 15.1165C21.1471 14.9859 21.3198 14.8895 21.5072 14.8343L21.9857 14.6933C24.6707 13.9028 24.6707 10.0958 21.9857 9.30525L21.5072 9.16425C21.3198 9.10905 21.1471 9.0126 21.0018 8.88198C20.8565 8.75135 20.7422 8.58987 20.6674 8.40936C20.5927 8.22886 20.5592 8.0339 20.5696 7.83878C20.5799 7.64367 20.6338 7.45334 20.7272 7.28175L20.9672 6.84375C22.3067 4.38375 19.6142 1.69425 17.1557 3.03375L16.7177 3.27225C16.5461 3.36571 16.3558 3.41958 16.1607 3.42993C15.9656 3.44027 15.7706 3.40682 15.5901 3.33203C15.4096 3.25724 15.2481 3.143 15.1175 2.99769C14.9869 2.85238 14.8904 2.67968 14.8352 2.49225L14.6942 2.01375ZM10.7447 2.43825C11.1137 1.18575 12.8867 1.18575 13.2557 2.43825L13.3967 2.91675C13.5153 3.31888 13.7223 3.68938 14.0026 4.0011C14.283 4.31282 14.6295 4.55785 15.0168 4.71822C15.4042 4.87859 15.8225 4.95025 16.2412 4.92794C16.6598 4.90562 17.0681 4.7899 17.4362 4.58925L17.8727 4.34925C19.0187 3.72675 20.2727 4.97925 19.6487 6.12675L19.4102 6.56475C19.2099 6.93289 19.0944 7.34119 19.0724 7.75973C19.0503 8.17828 19.1221 8.59645 19.2827 8.98363C19.4432 9.3708 19.6883 9.71715 20 9.99731C20.3117 10.2775 20.6822 10.4843 21.0842 10.6027L21.5612 10.7438C22.8137 11.1128 22.8137 12.8858 21.5612 13.2548L21.0827 13.3958C20.6806 13.5143 20.3101 13.7213 19.9984 14.0016C19.6867 14.282 19.4416 14.6285 19.2813 15.0159C19.1209 15.4032 19.0492 15.8215 19.0715 16.2402C19.0939 16.6588 19.2096 17.0672 19.4102 17.4353L19.6502 17.8718C20.2727 19.0178 19.0202 20.2718 17.8727 19.6478L17.4362 19.4093C17.068 19.2086 16.6596 19.093 16.2409 19.0707C15.8222 19.0485 15.4038 19.1203 15.0164 19.2808C14.629 19.4414 14.2825 19.6866 14.0022 19.9984C13.722 20.3103 13.5151 20.681 13.3967 21.0833L13.2557 21.5603C12.8867 22.8128 11.1137 22.8128 10.7447 21.5603L10.6037 21.0818C10.4851 20.6798 10.2782 20.3095 9.99792 19.998C9.71769 19.6864 9.37131 19.4415 8.98416 19.2811C8.59701 19.1208 8.17889 19.0491 7.76043 19.0712C7.34197 19.0934 6.93377 19.2089 6.56573 19.4093L6.12773 19.6493C4.98173 20.2718 3.72773 19.0193 4.35173 17.8718L4.59023 17.4353C4.79115 17.0671 4.9071 16.6586 4.92957 16.2398C4.95203 15.821 4.88044 15.4025 4.72004 15.0149C4.55965 14.6274 4.31452 14.2807 4.00264 14.0002C3.69077 13.7198 3.32006 13.5127 2.91773 13.3943L2.43923 13.2533C1.18673 12.8843 1.18673 11.1113 2.43923 10.7423L2.91773 10.6013C3.31944 10.4826 3.68954 10.2757 4.00094 9.99553C4.31234 9.71541 4.55717 9.36919 4.71751 8.98223C4.87784 8.59527 4.94962 8.17736 4.9276 7.75908C4.90558 7.3408 4.79031 6.93273 4.59023 6.56475L4.35023 6.12675C3.72773 4.98075 4.98023 3.72675 6.12773 4.35075L6.56573 4.58925C6.93377 4.78961 7.34197 4.90511 7.76043 4.92728C8.17889 4.94945 8.59701 4.87773 8.98416 4.71738C9.37131 4.55702 9.71769 4.31209 9.99792 4.00053C10.2782 3.68897 10.4851 3.31867 10.6037 2.91675L10.7447 2.43825Z"/>
</mask>
<path d="M12.0002 7.13025C11.3608 7.13025 10.7277 7.25619 10.1369 7.50088C9.54621 7.74557 9.00945 8.10422 8.55732 8.55635C8.1052 9.00848 7.74655 9.54523 7.50186 10.136C7.25717 10.7267 7.13123 11.3598 7.13123 11.9993C7.13123 12.6387 7.25717 13.2718 7.50186 13.8625C7.74655 14.4533 8.1052 14.99 8.55732 15.4422C9.00945 15.8943 9.54621 16.2529 10.1369 16.4976C10.7277 16.7423 11.3608 16.8683 12.0002 16.8683C13.2916 16.8683 14.53 16.3553 15.4431 15.4422C16.3562 14.529 16.8692 13.2906 16.8692 11.9993C16.8692 10.7079 16.3562 9.46946 15.4431 8.55635C14.53 7.64323 13.2916 7.13025 12.0002 7.13025ZM8.63123 11.9993C8.63123 11.1057 8.98617 10.2488 9.61798 9.61701C10.2498 8.9852 11.1067 8.63025 12.0002 8.63025C12.8937 8.63025 13.7507 8.9852 14.3825 9.61701C15.0143 10.2488 15.3692 11.1057 15.3692 11.9993C15.3692 12.8928 15.0143 13.7497 14.3825 14.3815C13.7507 15.0133 12.8937 15.3683 12.0002 15.3683C11.1067 15.3683 10.2498 15.0133 9.61798 14.3815C8.98617 13.7497 8.63123 12.8928 8.63123 11.9993Z" fill="#FBFBFB"/>
<path d="M14.6942 2.01375C13.9037 -0.67125 10.0967 -0.67125 9.30623 2.01375L9.16523 2.49225C9.11002 2.67968 9.01357 2.85238 8.88295 2.99769C8.75233 3.143 8.59085 3.25724 8.41034 3.33203C8.22983 3.40682 8.03487 3.44027 7.83976 3.42993C7.64464 3.41958 7.45432 3.36571 7.28273 3.27225L6.84473 3.03225C4.38473 1.69425 1.69523 4.38525 3.03473 6.84375L3.27323 7.28175C3.36668 7.45334 3.42056 7.64367 3.4309 7.83878C3.44125 8.0339 3.4078 8.22886 3.333 8.40936C3.25821 8.58987 3.14397 8.75135 2.99866 8.88198C2.85335 9.0126 2.68065 9.10905 2.49323 9.16425L2.01473 9.30525C-0.670273 10.0958 -0.670273 13.9028 2.01473 14.6933L2.49323 14.8343C2.68065 14.8895 2.85335 14.9859 2.99866 15.1165C3.14397 15.2471 3.25821 15.4086 3.333 15.5891C3.4078 15.7696 3.44125 15.9646 3.4309 16.1597C3.42056 16.3548 3.36668 16.5452 3.27323 16.7168L3.03323 17.1548C1.69523 19.6148 4.38473 22.3058 6.84473 20.9648L7.28273 20.7263C7.45432 20.6328 7.64464 20.5789 7.83976 20.5686C8.03487 20.5582 8.22983 20.5917 8.41034 20.6665C8.59085 20.7413 8.75233 20.8555 8.88295 21.0008C9.01357 21.1461 9.11002 21.3188 9.16523 21.5063L9.30623 21.9848C10.0967 24.6698 13.9037 24.6698 14.6942 21.9848L14.8352 21.5063C14.8904 21.3188 14.9869 21.1461 15.1175 21.0008C15.2481 20.8555 15.4096 20.7413 15.5901 20.6665C15.7706 20.5917 15.9656 20.5582 16.1607 20.5686C16.3558 20.5789 16.5461 20.6328 16.7177 20.7263L17.1557 20.9663C19.6157 22.3058 22.3067 19.6133 20.9657 17.1548L20.7272 16.7168C20.6338 16.5452 20.5799 16.3548 20.5696 16.1597C20.5592 15.9646 20.5927 15.7696 20.6674 15.5891C20.7422 15.4086 20.8565 15.2471 21.0018 15.1165C21.1471 14.9859 21.3198 14.8895 21.5072 14.8343L21.9857 14.6933C24.6707 13.9028 24.6707 10.0958 21.9857 9.30525L21.5072 9.16425C21.3198 9.10905 21.1471 9.0126 21.0018 8.88198C20.8565 8.75135 20.7422 8.58987 20.6674 8.40936C20.5927 8.22886 20.5592 8.0339 20.5696 7.83878C20.5799 7.64367 20.6338 7.45334 20.7272 7.28175L20.9672 6.84375C22.3067 4.38375 19.6142 1.69425 17.1557 3.03375L16.7177 3.27225C16.5461 3.36571 16.3558 3.41958 16.1607 3.42993C15.9656 3.44027 15.7706 3.40682 15.5901 3.33203C15.4096 3.25724 15.2481 3.143 15.1175 2.99769C14.9869 2.85238 14.8904 2.67968 14.8352 2.49225L14.6942 2.01375ZM10.7447 2.43825C11.1137 1.18575 12.8867 1.18575 13.2557 2.43825L13.3967 2.91675C13.5153 3.31888 13.7223 3.68938 14.0026 4.0011C14.283 4.31282 14.6295 4.55785 15.0168 4.71822C15.4042 4.87859 15.8225 4.95025 16.2412 4.92794C16.6598 4.90562 17.0681 4.7899 17.4362 4.58925L17.8727 4.34925C19.0187 3.72675 20.2727 4.97925 19.6487 6.12675L19.4102 6.56475C19.2099 6.93289 19.0944 7.34119 19.0724 7.75973C19.0503 8.17828 19.1221 8.59645 19.2827 8.98363C19.4432 9.3708 19.6883 9.71715 20 9.99731C20.3117 10.2775 20.6822 10.4843 21.0842 10.6027L21.5612 10.7438C22.8137 11.1128 22.8137 12.8858 21.5612 13.2548L21.0827 13.3958C20.6806 13.5143 20.3101 13.7213 19.9984 14.0016C19.6867 14.282 19.4416 14.6285 19.2813 15.0159C19.1209 15.4032 19.0492 15.8215 19.0715 16.2402C19.0939 16.6588 19.2096 17.0672 19.4102 17.4353L19.6502 17.8718C20.2727 19.0178 19.0202 20.2718 17.8727 19.6478L17.4362 19.4093C17.068 19.2086 16.6596 19.093 16.2409 19.0707C15.8222 19.0485 15.4038 19.1203 15.0164 19.2808C14.629 19.4414 14.2825 19.6866 14.0022 19.9984C13.722 20.3103 13.5151 20.681 13.3967 21.0833L13.2557 21.5603C12.8867 22.8128 11.1137 22.8128 10.7447 21.5603L10.6037 21.0818C10.4851 20.6798 10.2782 20.3095 9.99792 19.998C9.71769 19.6864 9.37131 19.4415 8.98416 19.2811C8.59701 19.1208 8.17889 19.0491 7.76043 19.0712C7.34197 19.0934 6.93377 19.2089 6.56573 19.4093L6.12773 19.6493C4.98173 20.2718 3.72773 19.0193 4.35173 17.8718L4.59023 17.4353C4.79115 17.0671 4.9071 16.6586 4.92957 16.2398C4.95203 15.821 4.88044 15.4025 4.72004 15.0149C4.55965 14.6274 4.31452 14.2807 4.00264 14.0002C3.69077 13.7198 3.32006 13.5127 2.91773 13.3943L2.43923 13.2533C1.18673 12.8843 1.18673 11.1113 2.43923 10.7423L2.91773 10.6013C3.31944 10.4826 3.68954 10.2757 4.00094 9.99553C4.31234 9.71541 4.55717 9.36919 4.71751 8.98223C4.87784 8.59527 4.94962 8.17736 4.9276 7.75908C4.90558 7.3408 4.79031 6.93273 4.59023 6.56475L4.35023 6.12675C3.72773 4.98075 4.98023 3.72675 6.12773 4.35075L6.56573 4.58925C6.93377 4.78961 7.34197 4.90511 7.76043 4.92728C8.17889 4.94945 8.59701 4.87773 8.98416 4.71738C9.37131 4.55702 9.71769 4.31209 9.99792 4.00053C10.2782 3.68897 10.4851 3.31867 10.6037 2.91675L10.7447 2.43825Z" fill="#FBFBFB"/>
<path d="M12.0002 7.13025C11.3608 7.13025 10.7277 7.25619 10.1369 7.50088C9.54621 7.74557 9.00945 8.10422 8.55732 8.55635C8.1052 9.00848 7.74655 9.54523 7.50186 10.136C7.25717 10.7267 7.13123 11.3598 7.13123 11.9993C7.13123 12.6387 7.25717 13.2718 7.50186 13.8625C7.74655 14.4533 8.1052 14.99 8.55732 15.4422C9.00945 15.8943 9.54621 16.2529 10.1369 16.4976C10.7277 16.7423 11.3608 16.8683 12.0002 16.8683C13.2916 16.8683 14.53 16.3553 15.4431 15.4422C16.3562 14.529 16.8692 13.2906 16.8692 11.9993C16.8692 10.7079 16.3562 9.46946 15.4431 8.55635C14.53 7.64323 13.2916 7.13025 12.0002 7.13025ZM8.63123 11.9993C8.63123 11.1057 8.98617 10.2488 9.61798 9.61701C10.2498 8.9852 11.1067 8.63025 12.0002 8.63025C12.8937 8.63025 13.7507 8.9852 14.3825 9.61701C15.0143 10.2488 15.3692 11.1057 15.3692 11.9993C15.3692 12.8928 15.0143 13.7497 14.3825 14.3815C13.7507 15.0133 12.8937 15.3683 12.0002 15.3683C11.1067 15.3683 10.2498 15.0133 9.61798 14.3815C8.98617 13.7497 8.63123 12.8928 8.63123 11.9993Z" stroke="#FBFBFB" stroke-width="2" mask="url(#path-1-inside-1_9224_32380)"/>
<path d="M14.6942 2.01375C13.9037 -0.67125 10.0967 -0.67125 9.30623 2.01375L9.16523 2.49225C9.11002 2.67968 9.01357 2.85238 8.88295 2.99769C8.75233 3.143 8.59085 3.25724 8.41034 3.33203C8.22983 3.40682 8.03487 3.44027 7.83976 3.42993C7.64464 3.41958 7.45432 3.36571 7.28273 3.27225L6.84473 3.03225C4.38473 1.69425 1.69523 4.38525 3.03473 6.84375L3.27323 7.28175C3.36668 7.45334 3.42056 7.64367 3.4309 7.83878C3.44125 8.0339 3.4078 8.22886 3.333 8.40936C3.25821 8.58987 3.14397 8.75135 2.99866 8.88198C2.85335 9.0126 2.68065 9.10905 2.49323 9.16425L2.01473 9.30525C-0.670273 10.0958 -0.670273 13.9028 2.01473 14.6933L2.49323 14.8343C2.68065 14.8895 2.85335 14.9859 2.99866 15.1165C3.14397 15.2471 3.25821 15.4086 3.333 15.5891C3.4078 15.7696 3.44125 15.9646 3.4309 16.1597C3.42056 16.3548 3.36668 16.5452 3.27323 16.7168L3.03323 17.1548C1.69523 19.6148 4.38473 22.3058 6.84473 20.9648L7.28273 20.7263C7.45432 20.6328 7.64464 20.5789 7.83976 20.5686C8.03487 20.5582 8.22983 20.5917 8.41034 20.6665C8.59085 20.7413 8.75233 20.8555 8.88295 21.0008C9.01357 21.1461 9.11002 21.3188 9.16523 21.5063L9.30623 21.9848C10.0967 24.6698 13.9037 24.6698 14.6942 21.9848L14.8352 21.5063C14.8904 21.3188 14.9869 21.1461 15.1175 21.0008C15.2481 20.8555 15.4096 20.7413 15.5901 20.6665C15.7706 20.5917 15.9656 20.5582 16.1607 20.5686C16.3558 20.5789 16.5461 20.6328 16.7177 20.7263L17.1557 20.9663C19.6157 22.3058 22.3067 19.6133 20.9657 17.1548L20.7272 16.7168C20.6338 16.5452 20.5799 16.3548 20.5696 16.1597C20.5592 15.9646 20.5927 15.7696 20.6674 15.5891C20.7422 15.4086 20.8565 15.2471 21.0018 15.1165C21.1471 14.9859 21.3198 14.8895 21.5072 14.8343L21.9857 14.6933C24.6707 13.9028 24.6707 10.0958 21.9857 9.30525L21.5072 9.16425C21.3198 9.10905 21.1471 9.0126 21.0018 8.88198C20.8565 8.75135 20.7422 8.58987 20.6674 8.40936C20.5927 8.22886 20.5592 8.0339 20.5696 7.83878C20.5799 7.64367 20.6338 7.45334 20.7272 7.28175L20.9672 6.84375C22.3067 4.38375 19.6142 1.69425 17.1557 3.03375L16.7177 3.27225C16.5461 3.36571 16.3558 3.41958 16.1607 3.42993C15.9656 3.44027 15.7706 3.40682 15.5901 3.33203C15.4096 3.25724 15.2481 3.143 15.1175 2.99769C14.9869 2.85238 14.8904 2.67968 14.8352 2.49225L14.6942 2.01375ZM10.7447 2.43825C11.1137 1.18575 12.8867 1.18575 13.2557 2.43825L13.3967 2.91675C13.5153 3.31888 13.7223 3.68938 14.0026 4.0011C14.283 4.31282 14.6295 4.55785 15.0168 4.71822C15.4042 4.87859 15.8225 4.95025 16.2412 4.92794C16.6598 4.90562 17.0681 4.7899 17.4362 4.58925L17.8727 4.34925C19.0187 3.72675 20.2727 4.97925 19.6487 6.12675L19.4102 6.56475C19.2099 6.93289 19.0944 7.34119 19.0724 7.75973C19.0503 8.17828 19.1221 8.59645 19.2827 8.98363C19.4432 9.3708 19.6883 9.71715 20 9.99731C20.3117 10.2775 20.6822 10.4843 21.0842 10.6027L21.5612 10.7438C22.8137 11.1128 22.8137 12.8858 21.5612 13.2548L21.0827 13.3958C20.6806 13.5143 20.3101 13.7213 19.9984 14.0016C19.6867 14.282 19.4416 14.6285 19.2813 15.0159C19.1209 15.4032 19.0492 15.8215 19.0715 16.2402C19.0939 16.6588 19.2096 17.0672 19.4102 17.4353L19.6502 17.8718C20.2727 19.0178 19.0202 20.2718 17.8727 19.6478L17.4362 19.4093C17.068 19.2086 16.6596 19.093 16.2409 19.0707C15.8222 19.0485 15.4038 19.1203 15.0164 19.2808C14.629 19.4414 14.2825 19.6866 14.0022 19.9984C13.722 20.3103 13.5151 20.681 13.3967 21.0833L13.2557 21.5603C12.8867 22.8128 11.1137 22.8128 10.7447 21.5603L10.6037 21.0818C10.4851 20.6798 10.2782 20.3095 9.99792 19.998C9.71769 19.6864 9.37131 19.4415 8.98416 19.2811C8.59701 19.1208 8.17889 19.0491 7.76043 19.0712C7.34197 19.0934 6.93377 19.2089 6.56573 19.4093L6.12773 19.6493C4.98173 20.2718 3.72773 19.0193 4.35173 17.8718L4.59023 17.4353C4.79115 17.0671 4.9071 16.6586 4.92957 16.2398C4.95203 15.821 4.88044 15.4025 4.72004 15.0149C4.55965 14.6274 4.31452 14.2807 4.00264 14.0002C3.69077 13.7198 3.32006 13.5127 2.91773 13.3943L2.43923 13.2533C1.18673 12.8843 1.18673 11.1113 2.43923 10.7423L2.91773 10.6013C3.31944 10.4826 3.68954 10.2757 4.00094 9.99553C4.31234 9.71541 4.55717 9.36919 4.71751 8.98223C4.87784 8.59527 4.94962 8.17736 4.9276 7.75908C4.90558 7.3408 4.79031 6.93273 4.59023 6.56475L4.35023 6.12675C3.72773 4.98075 4.98023 3.72675 6.12773 4.35075L6.56573 4.58925C6.93377 4.78961 7.34197 4.90511 7.76043 4.92728C8.17889 4.94945 8.59701 4.87773 8.98416 4.71738C9.37131 4.55702 9.71769 4.31209 9.99792 4.00053C10.2782 3.68897 10.4851 3.31867 10.6037 2.91675L10.7447 2.43825Z" stroke="#FBFBFB" stroke-width="2" mask="url(#path-1-inside-1_9224_32380)"/>
</g>
<defs>
<clipPath id="clip0_9224_32380">
<rect width="24" height="24" fill="white"/>
</clipPath>
</defs>
</svg>

<svg width="24" height="24" fill="none" xmlns="http://www.w3.org/2000/svg"><g clip-path="url(#clip0_9224_32380)"><mask id="a" fill="#fff"><path d="M12 7.13a4.87 4.87 0 100 9.739 4.87 4.87 0 000-9.739zM8.631 12a3.369 3.369 0 116.738 0 3.369 3.369 0 01-6.738 0z"/><path d="M14.694 2.014c-.79-2.685-4.597-2.685-5.388 0l-.14.478a1.31 1.31 0 01-1.883.78l-.438-.24c-2.46-1.338-5.15 1.353-3.81 3.812l.238.438a1.31 1.31 0 01-.78 1.882l-.478.141c-2.685.79-2.685 4.598 0 5.388l.478.141a1.31 1.31 0 01.78 1.883l-.24.438c-1.338 2.46 1.352 5.15 3.812 3.81l.438-.239a1.308 1.308 0 011.882.78l.141.479c.79 2.685 4.598 2.685 5.388 0l.141-.479a1.31 1.31 0 011.883-.78l.438.24c2.46 1.34 5.15-1.353 3.81-3.811l-.239-.438a1.31 1.31 0 01.78-1.883l.479-.14c2.685-.791 2.685-4.598 0-5.389l-.479-.14a1.31 1.31 0 01-.78-1.883l.24-.438c1.34-2.46-1.353-5.15-3.811-3.81l-.438.238a1.31 1.31 0 01-1.883-.78l-.14-.478zm-3.95.424c.37-1.252 2.143-1.252 2.512 0l.14.479a2.81 2.81 0 004.04 1.672l.437-.24c1.146-.622 2.4.63 1.776 1.778l-.239.438a2.809 2.809 0 001.674 4.038l.477.14c1.253.37 1.253 2.143 0 2.512l-.478.14a2.81 2.81 0 00-1.673 4.04l.24.437c.623 1.146-.63 2.4-1.777 1.776l-.437-.239a2.81 2.81 0 00-4.04 1.674l-.14.477c-.37 1.253-2.142 1.253-2.511 0l-.141-.478a2.808 2.808 0 00-4.038-1.673l-.438.24c-1.146.623-2.4-.63-1.776-1.777l.238-.437a2.81 2.81 0 00-1.672-4.04l-.479-.142c-1.252-.369-1.252-2.142 0-2.51l.479-.142A2.81 2.81 0 004.59 6.565l-.24-.438c-.622-1.146.63-2.4 1.778-1.776l.438.238a2.81 2.81 0 004.038-1.672l.14-.479z"/></mask><path d="M12 7.13a4.87 4.87 0 100 9.739 4.87 4.87 0 000-9.739zM8.631 12a3.369 3.369 0 116.738 0 3.369 3.369 0 01-6.738 0z" fill="#FBFBFB"/><path d="M14.694 2.014c-.79-2.685-4.597-2.685-5.388 0l-.14.478a1.31 1.31 0 01-1.883.78l-.438-.24c-2.46-1.338-5.15 1.353-3.81 3.812l.238.438a1.31 1.31 0 01-.78 1.882l-.478.141c-2.685.79-2.685 4.598 0 5.388l.478.141a1.31 1.31 0 01.78 1.883l-.24.438c-1.338 2.46 1.352 5.15 3.812 3.81l.438-.239a1.308 1.308 0 011.882.78l.141.479c.79 2.685 4.598 2.685 5.388 0l.141-.479a1.31 1.31 0 011.883-.78l.438.24c2.46 1.34 5.15-1.353 3.81-3.811l-.239-.438a1.31 1.31 0 01.78-1.883l.479-.14c2.685-.791 2.685-4.598 0-5.389l-.479-.14a1.31 1.31 0 01-.78-1.883l.24-.438c1.34-2.46-1.353-5.15-3.811-3.81l-.438.238a1.31 1.31 0 01-1.883-.78l-.14-.478zm-3.95.424c.37-1.252 2.143-1.252 2.512 0l.14.479a2.81 2.81 0 004.04 1.672l.437-.24c1.146-.622 2.4.63 1.776 1.778l-.239.438a2.809 2.809 0 001.674 4.038l.477.14c1.253.37 1.253 2.143 0 2.512l-.478.14a2.81 2.81 0 00-1.673 4.04l.24.437c.623 1.146-.63 2.4-1.777 1.776l-.437-.239a2.81 2.81 0 00-4.04 1.674l-.14.477c-.37 1.253-2.142 1.253-2.511 0l-.141-.478a2.808 2.808 0 00-4.038-1.673l-.438.24c-1.146.623-2.4-.63-1.776-1.777l.238-.437a2.81 2.81 0 00-1.672-4.04l-.479-.142c-1.252-.369-1.252-2.142 0-2.51l.479-.142A2.81 2.81 0 004.59 6.565l-.24-.438c-.622-1.146.63-2.4 1.778-1.776l.438.238a2.81 2.81 0 004.038-1.672l.14-.479z" fill="#FBFBFB"/><path d="M12 7.13a4.87 4.87 0 100 9.739 4.87 4.87 0 000-9.739zM8.631 12a3.369 3.369 0 116.738 0 3.369 3.369 0 01-6.738 0z" stroke="#FBFBFB" stroke-width="2" mask="url(#a)"/><path d="M14.694 2.014c-.79-2.685-4.597-2.685-5.388 0l-.14.478a1.31 1.31 0 01-1.883.78l-.438-.24c-2.46-1.338-5.15 1.353-3.81 3.812l.238.438a1.31 1.31 0 01-.78 1.882l-.478.141c-2.685.79-2.685 4.598 0 5.388l.478.141a1.31 1.31 0 01.78 1.883l-.24.438c-1.338 2.46 1.352 5.15 3.812 3.81l.438-.239a1.308 1.308 0 011.882.78l.141.479c.79 2.685 4.598 2.685 5.388 0l.141-.479a1.31 1.31 0 011.883-.78l.438.24c2.46 1.34 5.15-1.353 3.81-3.811l-.239-.438a1.31 1.31 0 01.78-1.883l.479-.14c2.685-.791 2.685-4.598 0-5.389l-.479-.14a1.31 1.31 0 01-.78-1.883l.24-.438c1.34-2.46-1.353-5.15-3.811-3.81l-.438.238a1.31 1.31 0 01-1.883-.78l-.14-.478zm-3.95.424c.37-1.252 2.143-1.252 2.512 0l.14.479a2.81 2.81 0 004.04 1.672l.437-.24c1.146-.622 2.4.63 1.776 1.778l-.239.438a2.809 2.809 0 001.674 4.038l.477.14c1.253.37 1.253 2.143 0 2.512l-.478.14a2.81 2.81 0 00-1.673 4.04l.24.437c.623 1.146-.63 2.4-1.777 1.776l-.437-.239a2.81 2.81 0 00-4.04 1.674l-.14.477c-.37 1.253-2.142 1.253-2.511 0l-.141-.478a2.808 2.808 0 00-4.038-1.673l-.438.24c-1.146.623-2.4-.63-1.776-1.777l.238-.437a2.81 2.81 0 00-1.672-4.04l-.479-.142c-1.252-.369-1.252-2.142 0-2.51l.479-.142A2.81 2.81 0 004.59 6.565l-.24-.438c-.622-1.146.63-2.4 1.778-1.776l.438.238a2.81 2.81 0 004.038-1.672l.14-.479z" stroke="#FBFBFB" stroke-width="2" mask="url(#a)"/></g><defs><clipPath id="clip0_9224_32380"><path fill="#fff" d="M0 0h24v24H0z"/></clipPath></defs></svg>
